X: 2
P: Part 2
M: 4/4
L: 1/8
K: G
|: "G"d4 d4-|d2 e2 d2 G2|"D"F4 F4-|"D"F2 A2 ^G2 A2|"Am"e4 e4-|"D"e2 f2 e2 c2|"G"B4 B4-|B2 G2 F2 G2||
"G"d4 d4-|"G7"d2 e2 d2 G2|"C"c4 c4-|"Cm"c2 d2 c2 G2|"G"B4 "C"c2 B2|"A7"E4 "D"F4|"G"G8-| [1 G2 G2 F2 G2 :| [2 "G"G4 "C7" C4 |]

